X: 1
T: Spin and Glow
C: Frank Ferrel
R: jig
S: Fiddle Hell Online 2021-5-18 Wendy McIsaac workshop handout
Z: 2021 John Chambers <jc:trillian.mit.edu>
M: 6/8
L: 1/8
K: G
|: DGB d2B | {B}d3 {e}d2z | DGB dcB | c3 Tc2z || DFA d^cd | {e}d^cd de=f |
[1 Te2c TA2^A | B3 BGE :|[2 TeAc BFA | G3 G2  |: g | {a}b2g d2g | dBG DGB | dcc Tc2B |
c3 cde || fgf Tf2e | ded Td2e |[1 =fed cA^A | TB3 Bd :|[2 fed cAF | {F}G3 GF"_D.C."E |]
